X: 142
T: The Atholl Highlanders
R:jig
M:6/8
K:A
"A"~e3 ecA|ecA "E7"Bcd|"A"~e3 ecA|"E7"Bcd  "A"cBA|
"A"~e3 ecA|ecA "E7"Bcd|"A"eae "D"fed|1 "E7"cdB "A"Acd:|2 "E7"cdB "A"A2A||
|: "A"Ace Ace|"D"Adf Adf|"A"Ace Ace|"E7"Bcd  "A"cBA|
"A"Ace Ace|"D"Adf Adf|"A"eae "D"fed|"E7"cdB "A"A2A:|
|: "A"a2e edc|a2e edc|a2e edc|"E"Bcd  efg|
"A"a2e edc|a2e edc|eae "D"fed|1 "E7"cdB "A"A2e:|2 "E7"cdB "A"A2B||
|: "A"cAc cAc|"G"dBd dBd|"A"cAc cAc|"G"B=GB B=GB|
"A"cAc cAc|"G"dBd dBd|"A"eae "D"fed|1 "E7"cdB "A"A2B:|2 "E7"cdB "A"Acd||


